X:1
T:Von himmel hoch
T:Von himmel hoch
T:Johann Walter
T:Source : Trium vocum cantiones---Nürnberg---J.Petreius---1541. Editor : André Vierendeels (11/05/16).
T:Notes : Original clefs : C3, C3, F3 Original note values have been halved Original text middle German
T:©
T:©
C:Johann Walter
Z:©
%%score [ 1 2 3 ]
L:1/8
Q:1/4=94
M:2/2
K:C
V:1 treble-8 nm="Tenor 1" snm="T 1"
V:2 treble-8 nm="Tenor 2" snm="T 2"
V:3 treble-8 nm="Tenor 3" snm="T 3"
V:1
 z2 c2 c4 | d4 e2 c2 | B2 G2 c4 | d4 e4 | z2 e2 e2 c2 | g2 fe d2 e2 | c2 c2 d4 | g2 g2 g4 | %8
w: Von him-|mel hoch da|kom ich her,||ich bring euch|gu- * * * te|neu- e mer,|neu- e mer,|
w: Euch ist|ein kind- lein|heut ge- bo-|* ren,|von ei- ner|junck- * * * frau|auss- er- korn,|auss- er- korn,|
 z2 g2 g4 | g2 c4 B2 | c2 A2 B4 | z2 c2 B2 c2 | d2 f3 e c2 | d2 d2 e4 | z2 c2 B2 c2 | d2 f3 e c2 | %16
w: der gu-|ten mer bring|ich so vil,|da- von ich|sin- gen und sa-|* gen wil,|da- von ich|sin- gen und sa-|
w: ein kin-|de- lein so|zart, so fein,|das sol eu'r|freud und _ _|won- ne sein,|das sol eu'r|freud und _ _|
 d2 d2 e4 |] %17
w: * gen wil.|
w: won- ne sein.|
V:2
 z2 c2 g4 | g2 g3 f e2 | d2 e3 d c2- | c2 B2 c4 | z2 c2 c2 A2 | B2 c2 d2 c2 | e2 f2 g3 f | %7
w: Von him-|mel hoch _ _|da kom _ _|_ ich her,|ich bring euch|gu- te neu- *|* e mer, _|
w: Euch ist|ein kind- * *|lein heut ge- bo-|* * ren,|von ei- ner|junck- frau auss- er-|ko- * * *|
 e2 dc d4 | z2 d2 e4 | d2 f4 e2 | c2 d2 e4 | z2 e2 d2 c2 | BB d3 c c2- | c2 B2 c4 | z2 e2 d2 c2 | %15
w: |der gu-|ten mer bring|ich so vil,|da- von ich|sin- gen und _ sa-|* gen wil,|da- von ich|
w: * * * ren,|ein kin-|de- lein so|zart; so fein|das sol eu'r|freud und won- * *|* ne sein,|das sol eu'r|
 BB d3 c c2- | c2 B2 c4 |] %17
w: sin- gen und- * sa-|* gen wil.|
w: freud und won- * *|* ne sein.|
V:3
 z2 c2 c4 | B4 c4 | G4 E2 F2 | D4 C4 | z2 C2 E2 F2 | G2 A2 B2 c2 | A4 G4- | G4 z4 | z2 G2 c4 | %9
w: Von him-|mel hoch|da kom- *|ich her,|ich bring euch|gu- te neu- *|e mer,|_|der gu-|
w: Euch ist|ein kind-|lein heut ge-|bo- ren,|von ei- ner|junck- frau auss- er-|ko- ren,|_|ein kin-|
 B2 A4 G2 | A2 F2 E4 | z2 C2 G2 A2 | GG D2 F2 E2 | D4 C4 | z2 C2 G2 A2 | GG D2 F2 E2 | D4 C4 |] %17
w: ten mer bring|ich so vil,|da- von ich|sin- gen und _ sa-|gen wil,|da- von ich|sin- gen und sa- *|gen wil.|
w: de- lein so|zart, so fein,|das sol eu'r|freud und won- * *|ne sein,|das sol eu'r|freud und won- * *|ne sein.|

